X: 1
T: Med Ludvig i Sekken
T: With Ludvig in Sekken
O: Norway
C: composer unknown
R: waltz
S: Bruce Sagan's "scanfolk" session archive
F: https://app.box.com/s/u6iiren0igvsukrhdducy7orq72jayq8/file/887498512264
% Note at bottom: "Sonjas Entdeckung 2020"
Z: 2021 John Chambers <jc:trillian.mit.edu> (plus rearranged B4 part).
M: 3/4
L: 1/8
K: C
"^A"[|]C2D2 |\
"C"E3GG2 | G2c2B2 | "F"A2G2F2 | "C"G2 C2D2 |\
[1,3 "Am"E3AA2 | A2G2E2 | "F"A2G2E2 | "G"D2 :|\
[2,4 "Am"E2A2G2 | "G"E2D3C | "F"C2 CD "G"CB, | "C"C2 :|
"^B"|: A2B2 |\
"Am"c3cc2 | c2A2B2 | "F"cBA2G2 | "C"E2 \
[1,3 A2B2 | "Am"c3cc2 | c2d2e2 | "F"e2d2c2 | "G"d2 :|\
[2,4 C2D2 | "Am"E2A2G2 | "G"E2D3C | "F"C2 CD "G"CB, | "C"C2 :|
P: alternate B4 part:
"^B4"|| A2B2 | "Am"c3cc2 | c2A2B2 | "F"BAG2F2 | "C"G2C2D2 |\
"Am"E2A2G2 | "G"E2D3C | "F"C2 CD "G"CB, | "C"C2- "d.C."y|]["End" C6 |]  y24
%%text Sekken is a small island (and a small town on the island) about 80 km north of Bergen, Norway.
